public/images/icons/Kubernetes.svg

<svg width="199" height="191" viewBox="0 0 199 191" fill="none" xmlns="http://www.w3.org/2000/svg">
<path d="M96.515 0H101.49L174.125 34.3446C175.622 35.0521 176.94 36.091 177.98 37.3833C179.02 38.6757 179.755 40.1883 180.131 41.8078L197.507 116.722C197.862 118.268 197.865 119.873 197.514 121.416C197.163 122.959 196.469 124.401 195.482 125.636L146.834 186.119C145.934 187.234 144.793 188.134 143.496 188.752C142.198 189.37 140.776 189.691 139.336 189.691L59.6289 189.656C58.1881 189.656 56.7664 189.335 55.4687 188.717C54.171 188.098 53.0303 187.199 52.1309 186.084L4.0155 126.272C2.8752 124.862 2.07159 123.212 1.66531 121.447C1.25903 119.683 1.26068 117.849 1.67014 116.086L18.7273 42.303C19.1372 40.5054 19.9506 38.8216 21.1071 37.3766C22.2636 35.9316 23.7336 34.7623 25.408 33.9556L96.515 0ZM128 143.391C138.044 136.789 144.986 128.3 148.824 117.925C149.09 117.2 149.501 116.536 150.033 115.974C150.565 115.412 151.206 114.964 151.917 114.656C152.628 114.349 153.395 114.188 154.17 114.185C154.946 114.181 155.714 114.334 156.428 114.635C159.745 116.05 163.168 117.052 166.698 117.642C169.991 118.184 171.555 116.97 171.389 113.999C171.315 112.763 170.763 111.605 169.848 110.767C168.934 109.929 167.728 109.477 166.485 109.507C162.055 109.577 158.004 108.858 154.332 107.349C153.667 107.082 153.108 106.606 152.742 105.992C152.376 105.379 152.223 104.662 152.306 103.954C153.514 92.6586 151.169 81.8824 145.27 71.625C144.571 70.4154 144.366 68.9858 144.697 67.6348C145.028 66.2837 145.87 65.1155 147.047 64.3741L156.997 58.0074C158.205 57.2293 158.667 56.1446 158.383 54.7533C158.075 53.3149 157.317 52.2892 156.108 51.6761C153.858 50.5443 151.856 50.8862 150.103 52.7019L144.133 58.8917C142.906 60.1664 141.221 60.9041 139.443 60.9439C137.666 60.9837 135.941 60.3222 134.645 59.1039C127.277 52.1949 118.085 47.809 107.069 45.9461C105.698 45.7112 104.47 44.9584 103.643 43.8448C102.815 42.7311 102.451 41.3426 102.627 39.9685L103.977 29.1806C104.404 25.7143 102.9 24.3584 99.4644 25.113L98.1496 25.3959C95.8516 25.8911 94.833 27.2941 95.0935 29.605L96.4439 40.9943C96.5764 42.1168 96.2647 43.2467 95.5749 44.1445C94.8851 45.0424 93.8713 45.6377 92.7482 45.8046C81.4478 47.4552 71.794 51.9591 63.7866 59.3161C62.5486 60.444 60.9186 61.0487 59.241 61.0025C57.5634 60.9563 55.9695 60.2628 54.796 59.0685L49.6434 53.8337C47.7007 51.8294 45.3791 51.2045 42.6784 51.9591C41.1385 52.3835 40.6765 53.5743 41.2925 55.5315C41.8847 57.4179 43.0219 58.8799 44.7039 59.9174L52.1664 64.5156C53.3309 65.2321 54.1637 66.3778 54.4832 67.7029C54.8027 69.028 54.583 70.425 53.8721 71.5896C47.8784 81.4226 45.4857 92.2931 46.6939 104.201C46.7578 104.862 46.6055 105.525 46.2597 106.092C45.9138 106.66 45.3931 107.1 44.775 107.349C41.0556 108.882 36.8505 109.719 32.1598 109.86C28.6773 109.978 27.1729 111.617 27.6468 114.777C27.7312 115.365 27.9442 115.928 28.2706 116.426C28.5969 116.923 29.0286 117.342 29.5346 117.653C30.0406 117.964 30.6084 118.159 31.1974 118.224C31.7864 118.29 32.382 118.224 32.9416 118.031L43.7089 114.423C44.9346 114.009 46.2747 114.083 47.452 114.629C48.6293 115.175 49.5538 116.153 50.0343 117.359C54.3459 128.253 61.0385 136.636 70.1119 142.507C71.2773 143.26 72.0959 144.442 72.3889 145.794C72.6819 147.146 72.4254 148.558 71.6755 149.723L65.5634 159.131C65.1957 159.696 65.0031 160.356 65.0094 161.029C65.0157 161.702 65.2207 162.358 65.5989 162.916C66.5465 164.307 67.7074 165.05 69.0814 165.144C71.1899 165.286 72.5994 164.366 73.3102 162.385L77.3612 151.244C77.7011 150.283 78.4026 149.492 79.3175 149.037C80.2325 148.581 81.2894 148.498 82.2652 148.803C93.755 152.293 105.387 152.281 117.161 148.768C118.535 148.343 119.613 148.744 120.395 149.97C122.74 153.602 124.47 157.61 125.583 161.996C125.867 163.105 126.507 163.942 127.502 164.508C129.492 165.616 131.257 165.274 132.797 163.482C133.406 162.792 133.765 161.919 133.817 161.002C133.869 160.085 133.609 159.177 133.081 158.424C130.546 154.887 128.462 151.185 126.827 147.318C126.529 146.635 126.483 145.869 126.697 145.151C126.912 144.434 127.372 143.811 128 143.391Z" fill="#2E6CE6"/>
<path d="M94.0275 60.0235L93.0325 78.0978C92.9981 78.7139 92.7974 79.3094 92.4516 79.8216C92.1057 80.3337 91.6275 80.7435 91.0673 81.0079C90.5071 81.2722 89.8856 81.3812 89.2684 81.3235C88.6511 81.2658 88.0609 81.0434 87.56 80.6798L72.8127 70.1041C72.3292 69.7552 71.9451 69.2874 71.698 68.7463C71.4508 68.2052 71.3492 67.6095 71.4029 67.0176C71.4566 66.4256 71.664 65.8578 72.0045 65.3695C72.3451 64.8813 72.8072 64.4896 73.3457 64.2326L89.1236 56.7341C89.6629 56.4827 90.2585 56.3747 90.8523 56.4206C91.4461 56.4665 92.0178 56.6648 92.5117 56.9961C93.0056 57.3273 93.4049 57.7804 93.6705 58.3109C93.9361 58.8415 94.0591 59.4316 94.0275 60.0235Z" fill="#2E6CE6"/>
<path d="M125.974 70.0687L111.405 80.5383C110.898 80.9004 110.303 81.1204 109.682 81.1754C109.06 81.2304 108.436 81.1183 107.873 80.8508C107.31 80.5834 106.83 80.1704 106.482 79.655C106.134 79.1396 105.932 78.5407 105.897 77.9209L104.902 60.0589C104.867 59.458 104.991 58.8586 105.26 58.3197C105.53 57.7808 105.935 57.321 106.437 56.9855C106.939 56.65 107.52 56.4504 108.123 56.4063C108.726 56.3622 109.331 56.4752 109.877 56.7341L125.441 64.1265C125.987 64.3859 126.456 64.7823 126.801 65.2768C127.146 65.7712 127.356 66.3466 127.41 66.9463C127.463 67.546 127.359 68.1494 127.108 68.6969C126.856 69.2443 126.465 69.7172 125.974 70.0687Z" fill="#2E6CE6"/>
<path d="M65.9898 77.9916L79.8487 91.1141C80.2396 91.4796 80.527 91.941 80.682 92.4521C80.8369 92.9631 80.8541 93.5057 80.7316 94.0255C80.6092 94.5452 80.3515 95.0237 79.9844 95.4129C79.6174 95.8021 79.1539 96.0883 78.6405 96.2428L60.7305 101.654C60.2228 101.807 59.684 101.825 59.1671 101.708C58.6501 101.59 58.1728 101.34 57.7821 100.984C57.3913 100.627 57.1006 100.175 56.9384 99.6724C56.7762 99.1698 56.7482 98.634 56.8571 98.1174L60.9082 79.5833C61.0199 79.0551 61.2708 78.5661 61.6352 78.1663C61.9995 77.7665 62.4641 77.4704 62.9814 77.3084C63.4987 77.1463 64.0499 77.1242 64.5786 77.2443C65.1073 77.3644 65.5944 77.6223 65.9898 77.9916Z" fill="#2E6CE6"/>
<path d="M136.883 78.1332C140.082 85.6081 141.622 92.9298 141.503 100.098C141.503 101.56 140.792 102.091 139.371 101.69L120.786 96.4904C120.17 96.3214 119.612 95.9903 119.169 95.5321C118.726 95.0738 118.416 94.5053 118.271 93.8864C118.125 93.2674 118.15 92.6209 118.342 92.0148C118.535 91.4087 118.888 90.8654 119.364 90.4421L133.898 77.4965C135.201 76.3411 136.196 76.5533 136.883 78.1332Z" fill="#2E6CE6"/>
<path d="M99.4999 105.085C103.347 105.085 106.465 101.982 106.465 98.1528C106.465 94.324 103.347 91.2202 99.4999 91.2202C95.6532 91.2202 92.5349 94.324 92.5349 98.1528C92.5349 101.982 95.6532 105.085 99.4999 105.085Z" fill="#2E6CE6"/>
<path d="M121.141 130.623L113.999 113.397C113.777 112.869 113.701 112.292 113.778 111.725C113.855 111.157 114.083 110.621 114.437 110.17C114.792 109.72 115.261 109.372 115.796 109.162C116.331 108.952 116.913 108.888 117.481 108.976L135.995 111.841C136.553 111.926 137.079 112.154 137.521 112.504C137.963 112.854 138.305 113.313 138.514 113.835C138.722 114.357 138.79 114.924 138.709 115.481C138.629 116.037 138.404 116.562 138.056 117.005L126.649 131.401C126.298 131.837 125.839 132.174 125.317 132.38C124.795 132.585 124.228 132.652 123.673 132.573C123.117 132.495 122.591 132.274 122.147 131.932C121.704 131.59 121.357 131.139 121.141 130.623Z" fill="#2E6CE6"/>
<path d="M85.108 113.539L78.0719 130.304C77.8574 130.815 77.514 131.263 77.075 131.603C76.636 131.943 76.1163 132.165 75.566 132.246C75.0158 132.328 74.4537 132.267 73.934 132.07C73.4143 131.872 72.9546 131.544 72.5994 131.118L61.0148 117.076C60.6591 116.638 60.4251 116.115 60.3361 115.559C60.2472 115.003 60.3063 114.433 60.5078 113.907C60.7092 113.38 61.0458 112.916 61.4839 112.56C61.9221 112.203 62.4465 111.968 63.0048 111.876L81.661 109.118C82.2265 109.037 82.8035 109.106 83.3332 109.319C83.8629 109.532 84.3265 109.881 84.6767 110.33C85.027 110.779 85.2514 111.313 85.3271 111.877C85.4029 112.44 85.3273 113.014 85.108 113.539Z" fill="#2E6CE6"/>
<path d="M87.4888 135.292L96.7637 118.491C97.0266 118.011 97.4144 117.611 97.8866 117.332C98.3587 117.053 98.8976 116.905 99.4466 116.905C99.9956 116.905 100.535 117.053 101.007 117.332C101.479 117.611 101.867 118.011 102.13 118.491L111.369 135.327C111.622 135.791 111.749 136.313 111.738 136.842C111.727 137.37 111.577 137.886 111.305 138.339C111.032 138.793 110.646 139.167 110.183 139.427C109.721 139.686 109.199 139.822 108.668 139.819L90.154 139.784C89.6263 139.78 89.1085 139.64 88.651 139.378C88.1936 139.116 87.8121 138.741 87.5437 138.289C87.2754 137.836 87.1293 137.323 87.1196 136.797C87.11 136.272 87.2372 135.753 87.4888 135.292Z" fill="#2E6CE6"/>
</svg>

<svg width="199" height="191" fill="none" xmlns="http://www.w3.org/2000/svg"><path d="M96.515 0h4.975l72.635 34.345a10.96 10.96 0 0 1 3.855 3.038 11.038 11.038 0 0 1 2.151 4.425l17.376 74.914c.355 1.546.358 3.151.007 4.694a10.48 10.48 0 0 1-2.032 4.22l-48.648 60.483a9.591 9.591 0 0 1-3.338 2.633 9.68 9.68 0 0 1-4.16.939l-79.707-.035a9.677 9.677 0 0 1-4.16-.939 9.59 9.59 0 0 1-3.338-2.633L4.016 126.272a11.929 11.929 0 0 1-2.35-4.825 11.897 11.897 0 0 1 .004-5.361l17.057-73.783a12.24 12.24 0 0 1 2.38-4.926 12.402 12.402 0 0 1 4.301-3.421L96.515 0ZM128 143.391c10.044-6.602 16.986-15.091 20.824-25.466a5.687 5.687 0 0 1 1.209-1.951 5.73 5.73 0 0 1 4.137-1.789 5.736 5.736 0 0 1 2.258.45 44.982 44.982 0 0 0 10.27 3.007c3.293.542 4.857-.672 4.691-3.643a4.768 4.768 0 0 0-1.541-3.232 4.805 4.805 0 0 0-3.363-1.26c-4.43.07-8.481-.649-12.153-2.158a3.266 3.266 0 0 1-1.59-1.357 3.24 3.24 0 0 1-.436-2.038c1.208-11.295-1.137-22.072-7.036-32.329a5.405 5.405 0 0 1-.573-3.99 5.36 5.36 0 0 1 2.35-3.26l9.95-6.368c1.208-.778 1.67-1.862 1.386-3.254-.308-1.438-1.066-2.464-2.275-3.077-2.25-1.132-4.252-.79-6.005 1.026l-5.97 6.19a6.714 6.714 0 0 1-4.69 2.052 6.788 6.788 0 0 1-4.798-1.84c-7.368-6.91-16.56-11.295-27.576-13.158a5.404 5.404 0 0 1-3.426-2.101 5.355 5.355 0 0 1-1.016-3.877l1.35-10.787c.427-3.467-1.077-4.823-4.513-4.068l-1.314.283c-2.298.495-3.317 1.898-3.056 4.209l1.35 11.39a4.336 4.336 0 0 1-.87 3.15 4.375 4.375 0 0 1-2.826 1.66c-11.3 1.65-20.954 6.154-28.961 13.511a6.485 6.485 0 0 1-8.991-.248l-5.153-5.234c-1.942-2.005-4.264-2.63-6.965-1.875-1.54.424-2.002 1.615-1.386 3.572.593 1.887 1.73 3.349 3.412 4.386l7.462 4.599a5.165 5.165 0 0 1 2.317 3.187c.32 1.325.1 2.722-.61 3.887-5.995 9.833-8.387 20.703-7.18 32.611a3.064 3.064 0 0 1-.433 1.891 3.087 3.087 0 0 1-1.485 1.257c-3.72 1.533-7.925 2.37-12.615 2.511-3.483.118-4.987 1.757-4.513 4.917a4.061 4.061 0 0 0 1.888 2.876 4.017 4.017 0 0 0 3.407.378l10.767-3.608a5.054 5.054 0 0 1 3.743.206 5.084 5.084 0 0 1 2.582 2.73c4.312 10.894 11.005 19.277 20.078 25.148a5.235 5.235 0 0 1 2.277 3.287 5.215 5.215 0 0 1-.713 3.929l-6.113 9.408a3.42 3.42 0 0 0 .036 3.785c.947 1.391 2.108 2.134 3.482 2.228 2.109.142 3.518-.778 4.23-2.759l4.05-11.141a3.929 3.929 0 0 1 1.956-2.207 3.96 3.96 0 0 1 2.948-.234c11.49 3.49 23.122 3.478 34.896-.035 1.374-.425 2.452-.024 3.234 1.202 2.345 3.632 4.075 7.64 5.188 12.026.284 1.109.924 1.946 1.919 2.512 1.99 1.108 3.755.766 5.295-1.026a4.088 4.088 0 0 0 .284-5.058c-2.535-3.537-4.619-7.239-6.254-11.106a3.157 3.157 0 0 1-.13-2.167 3.238 3.238 0 0 1 1.303-1.76Z" fill="#2E6CE6"/><path d="m94.028 60.023-.996 18.075a3.421 3.421 0 0 1-.58 1.724 3.444 3.444 0 0 1-3.184 1.501 3.456 3.456 0 0 1-1.708-.643L72.813 70.104a3.434 3.434 0 0 1-1.41-3.086 3.422 3.422 0 0 1 1.943-2.785l15.778-7.499a3.46 3.46 0 0 1 3.388.262 3.419 3.419 0 0 1 1.516 3.027ZM125.974 70.069l-14.569 10.47a3.495 3.495 0 0 1-4.923-.884 3.446 3.446 0 0 1-.585-1.734l-.995-17.862c-.035-.601.089-1.2.358-1.74a3.478 3.478 0 0 1 2.863-1.913 3.5 3.5 0 0 1 1.754.328l15.564 7.392a3.46 3.46 0 0 1 1.667 4.57 3.475 3.475 0 0 1-1.134 1.373ZM65.99 77.992l13.859 13.122a3.04 3.04 0 0 1 .883 2.911 3.058 3.058 0 0 1-2.091 2.217l-17.91 5.412a3.07 3.07 0 0 1-2.949-.67 3.042 3.042 0 0 1-.925-2.867l4.051-18.534a3.036 3.036 0 0 1 .727-1.417 3.057 3.057 0 0 1 2.944-.922 3.06 3.06 0 0 1 1.41.748ZM136.883 78.133c3.199 7.475 4.739 14.797 4.62 21.965 0 1.462-.711 1.993-2.132 1.592l-18.585-5.2a3.558 3.558 0 0 1-1.617-.958 3.524 3.524 0 0 1 .195-5.09l14.534-12.945c1.303-1.156 2.298-.944 2.985.636ZM99.5 105.085c3.847 0 6.965-3.103 6.965-6.932s-3.118-6.933-6.965-6.933-6.965 3.104-6.965 6.933c0 3.829 3.118 6.932 6.965 6.932ZM121.141 130.623l-7.142-17.226a3.2 3.2 0 0 1 .438-3.227 3.237 3.237 0 0 1 3.044-1.194l18.514 2.865a3.228 3.228 0 0 1 2.519 1.994 3.2 3.2 0 0 1-.458 3.17l-11.407 14.396a3.232 3.232 0 0 1-2.976 1.172 3.23 3.23 0 0 1-2.532-1.95ZM85.108 113.539l-7.036 16.765a3.22 3.22 0 0 1-2.506 1.942 3.24 3.24 0 0 1-2.967-1.128l-11.584-14.042a3.211 3.211 0 0 1-.507-3.169 3.24 3.24 0 0 1 2.497-2.031l18.656-2.758a3.248 3.248 0 0 1 3.016 1.212 3.21 3.21 0 0 1 .431 3.209ZM87.489 135.292l9.275-16.801a3.067 3.067 0 0 1 4.243-1.159c.472.279.86.679 1.123 1.159l9.239 16.836a3.032 3.032 0 0 1-1.186 4.1 3.064 3.064 0 0 1-1.515.392l-18.514-.035a3.072 3.072 0 0 1-2.61-1.495 3.035 3.035 0 0 1-.055-2.997Z" fill="#2E6CE6"/></svg>
